X: 38801
T: Suck
R: jig
M: 6/8
K: Dminor
|:~D3 DAD|AFG Acd|cde fef|~e3 dcd|
~g3 fef|~e3 dcd|cde fef|1 edc AGE:|2 edc Adg||
|:agf gdg|fed cAG|AGF ~G3|Ad^c d2 e|
fed ~d3|~A3 d2c|1 AGF GFG|Ad^c d2g:|2 AGF ~G3|Ad^c dAE||

